apps/site/public/icons/companies/openai-light.svg

<svg xmlns="http://www.w3.org/2000/svg" width="721" height="721" fill="none" viewBox="0 0 721 721"><g clip-path="url(#a)"><g clip-path="url(#b)"><path fill="#fff" d="M304.246 295.411v-45.583c0-3.839 1.441-6.719 4.798-8.637l91.648-52.779c12.475-7.197 27.35-10.554 42.702-10.554 57.577 0 94.046 44.624 94.046 92.124 0 3.358 0 7.197-.481 11.036l-95.005-55.66q-8.637-5.037-17.274 0zm213.999 177.534V364.024c0-6.72-2.881-11.517-8.637-14.875l-120.434-70.053 39.345-22.553c3.358-1.917 6.238-1.917 9.596 0l91.647 52.78c26.392 15.356 44.143 47.981 44.143 79.648 0 36.465-21.59 70.053-55.66 83.97zm-242.308-95.963-39.345-23.03c-3.357-1.918-4.798-4.798-4.798-8.637V239.756c0-51.34 39.345-90.208 92.606-90.208 20.155 0 38.864 6.72 54.702 18.714l-94.524 54.702c-5.756 3.357-8.636 8.155-8.636 14.874v139.148zm84.689 48.94-56.38-31.667v-67.172l56.38-31.667 56.376 31.667v67.172zm36.226 145.867c-20.154 0-38.863-6.719-54.701-18.714l94.523-54.701c5.757-3.357 8.637-8.155 8.637-14.875V344.352l39.827 23.03c3.357 1.917 4.798 4.797 4.798 8.636v105.559c0 51.34-39.827 90.208-93.084 90.208zM283.134 464.79l-91.648-52.78c-26.392-15.356-44.143-47.981-44.143-79.648 0-36.946 22.072-70.053 56.137-83.969v109.398c0 6.719 2.881 11.517 8.637 14.874l119.957 69.572-39.345 22.553c-3.357 1.917-6.238 1.917-9.595 0m-5.275 78.69c-54.22 0-94.046-40.785-94.046-91.166 0-3.839.481-7.678.958-11.517l94.524 54.701c5.756 3.358 11.517 3.358 17.273 0l120.434-69.571v45.582c0 3.84-1.44 6.72-4.798 8.637l-91.647 52.78c-12.476 7.196-27.351 10.554-42.703 10.554zm118.993 57.096c58.059 0 106.518-41.263 117.558-95.964 53.739-13.916 88.286-64.297 88.286-115.636 0-33.589-14.393-66.214-40.304-89.726 2.399-10.077 3.839-20.154 3.839-30.226 0-68.613-55.66-119.957-119.957-119.957-12.952 0-25.428 1.917-37.904 6.238-21.595-21.113-51.344-34.547-83.97-34.547-58.058 0-106.517 41.262-117.557 95.963-53.739 13.916-88.286 64.297-88.286 115.636 0 33.589 14.393 66.214 40.304 89.726-2.399 10.077-3.839 20.154-3.839 30.226 0 68.613 55.66 119.957 119.956 119.957 12.953 0 25.429-1.917 37.905-6.238 21.59 21.113 51.339 34.548 83.969 34.548"/></g></g><defs><clipPath id="a"><path fill="#fff" d="M.607.9h720v720h-720z"/></clipPath><clipPath id="b"><path fill="#fff" d="M118.557 120.758h484.139v479.818H118.557z"/></clipPath></defs></svg>

<svg width="721" height="721" viewBox="0 0 721 721" fill="none" xmlns="http://www.w3.org/2000/svg">
<g clip-path="url(#clip0_1637_2935)">
<g clip-path="url(#clip1_1637_2935)">
<path d="M304.246 295.411V249.828C304.246 245.989 305.687 243.109 309.044 241.191L400.692 188.412C413.167 181.215 428.042 177.858 443.394 177.858C500.971 177.858 537.44 222.482 537.44 269.982C537.44 273.34 537.44 277.179 536.959 281.018L441.954 225.358C436.197 222 430.437 222 424.68 225.358L304.246 295.411ZM518.245 472.945V364.024C518.245 357.304 515.364 352.507 509.608 349.149L389.174 279.096L428.519 256.543C431.877 254.626 434.757 254.626 438.115 256.543L529.762 309.323C556.154 324.679 573.905 357.304 573.905 388.971C573.905 425.436 552.315 459.024 518.245 472.941V472.945ZM275.937 376.982L236.592 353.952C233.235 352.034 231.794 349.154 231.794 345.315V239.756C231.794 188.416 271.139 149.548 324.4 149.548C344.555 149.548 363.264 156.268 379.102 168.262L284.578 222.964C278.822 226.321 275.942 231.119 275.942 237.838V376.986L275.937 376.982ZM360.626 425.922L304.246 394.255V327.083L360.626 295.416L417.002 327.083V394.255L360.626 425.922ZM396.852 571.789C376.698 571.789 357.989 565.07 342.151 553.075L436.674 498.374C442.431 495.017 445.311 490.219 445.311 483.499V344.352L485.138 367.382C488.495 369.299 489.936 372.179 489.936 376.018V481.577C489.936 532.917 450.109 571.785 396.852 571.785V571.789ZM283.134 464.79L191.486 412.01C165.094 396.654 147.343 364.029 147.343 332.362C147.343 295.416 169.415 262.309 203.48 248.393V357.791C203.48 364.51 206.361 369.308 212.117 372.665L332.074 442.237L292.729 464.79C289.372 466.707 286.491 466.707 283.134 464.79ZM277.859 543.48C223.639 543.48 183.813 502.695 183.813 452.314C183.813 448.475 184.294 444.636 184.771 440.797L279.295 495.498C285.051 498.856 290.812 498.856 296.568 495.498L417.002 425.927V471.509C417.002 475.349 415.562 478.229 412.204 480.146L320.557 532.926C308.081 540.122 293.206 543.48 277.854 543.48H277.859ZM396.852 600.576C454.911 600.576 503.37 559.313 514.41 504.612C568.149 490.696 602.696 440.315 602.696 388.976C602.696 355.387 588.303 322.762 562.392 299.25C564.791 289.173 566.231 279.096 566.231 269.024C566.231 200.411 510.571 149.067 446.274 149.067C433.322 149.067 420.846 150.984 408.37 155.305C386.775 134.192 357.026 120.758 324.4 120.758C266.342 120.758 217.883 162.02 206.843 216.721C153.104 230.637 118.557 281.018 118.557 332.357C118.557 365.946 132.95 398.571 158.861 422.083C156.462 432.16 155.022 442.237 155.022 452.309C155.022 520.922 210.682 572.266 274.978 572.266C287.931 572.266 300.407 570.349 312.883 566.028C334.473 587.141 364.222 600.576 396.852 600.576Z" fill="white"/>
</g>
</g>
<defs>
<clipPath id="clip0_1637_2935">
<rect width="720" height="720" fill="white" transform="translate(0.606934 0.899902)"/>
</clipPath>
<clipPath id="clip1_1637_2935">
<rect width="484.139" height="479.818" fill="white" transform="translate(118.557 120.758)"/>
</clipPath>
</defs>
</svg>
